(G-code generated by FlatCAM Evo vUnstable - Version Date: 2023/6/31)

(Name: Gerber_BottomLayer.GBL_iso_combined_cnc)
(Type: G-code from Geometry)
(Units: MM)

(Created on Monday, 15 July 2024 at 09:09)

(This preprocessor is the default preprocessor.)
(It is made to work with MACH3 compatible motion controllers.)

(TOOL DIAMETER: 0.2 mm)
(Feedrate_XY: 120.0 mm/min)
(Feedrate_Z: 60.0 mm/min)
(Feedrate rapids 1500.0 mm/min)

(Z_Cut: -0.09 mm)
(Z_Move: 2.0 mm)
(Z Start: None mm)
(Z End: 15.0 mm)
(X,Y End: None mm)
(Steps per circle: 16)
(Preprocessor Geometry: default)

(X range:    2.5522 ...   38.1007  mm)
(Y range:  -37.3444 ...   -4.0220  mm)

(Spindle Speed: 0.0 RPM)
G21
G90
G94

G01 F120.00
G00 Z2.0000

M03
G01 F120.00
G00 X5.3679 Y-6.8860
G01 F60.00
G01 Z-0.0900
G01 F120.00
G01 X5.2529 Y-6.6999
G01 X5.1765 Y-6.5385
G01 X5.1164 Y-6.3703
G01 X5.0730 Y-6.1971
G01 X5.0468 Y-6.0204
G01 X5.0380 Y-5.8420
G01 X5.0468 Y-5.6636
G01 X5.0730 Y-5.4869
G01 X5.1164 Y-5.3137
G01 X5.1765 Y-5.1455
G01 X5.2529 Y-4.9841
G01 X5.3447 Y-4.8309
G01 X5.4511 Y-4.6874
G01 X5.5711 Y-4.5551
G01 X5.7034 Y-4.4351
G01 X5.8469 Y-4.3287
G01 X6.0001 Y-4.2369
G01 X6.1615 Y-4.1605
G01 X6.3297 Y-4.1004
G01 X6.5029 Y-4.0570
G01 X6.6796 Y-4.0308
G01 X6.8580 Y-4.0220
G01 X7.0364 Y-4.0308
G01 X7.2131 Y-4.0570
G01 X7.3863 Y-4.1004
G01 X7.5545 Y-4.1605
G01 X7.7159 Y-4.2369
G01 X7.8691 Y-4.3287
G01 X8.0126 Y-4.4351
G01 X8.1449 Y-4.5551
G01 X8.2649 Y-4.6874
G01 X8.3713 Y-4.8309
G01 X8.4631 Y-4.9841
G01 X8.5232 Y-5.1087
G01 X8.5996 Y-5.3137
G01 X8.6430 Y-5.4869
G01 X8.6643 Y-5.6237
G01 X8.6780 Y-5.8420
G01 X8.6692 Y-6.0204
G01 X8.6499 Y-6.1574
G01 X8.5870 Y-6.4085
G01 X8.5395 Y-6.5385
G01 X8.4631 Y-6.6999
G01 X8.3713 Y-6.8531
G01 X8.2783 Y-6.9794
G01 X8.2783 Y-18.6594
G01 X8.4779 Y-18.7505
G01 X8.6311 Y-18.8423
G01 X8.7746 Y-18.9487
G01 X8.9069 Y-19.0686
G01 X9.0269 Y-19.2010
G01 X9.1548 Y-19.3784
G01 X9.2432 Y-19.5336
G01 X9.3015 Y-19.6591
G01 X9.3488 Y-19.7885
G01 X12.3944 Y-22.8396
G01 X12.5253 Y-23.0160
G01 X12.5754 Y-23.1016
G01 X12.6350 Y-23.2276
G01 X12.6927 Y-23.3976
G01 X12.7158 Y-23.4940
G01 X12.7363 Y-23.6319
G01 X12.7431 Y-23.7711
G01 X12.7421 Y-26.8530
G01 X12.7227 Y-27.0502
G01 X12.6820 Y-27.2250
G01 X12.6350 Y-27.3563
G01 X12.5556 Y-27.5173
G01 X12.4455 Y-27.6820
G01 X12.3271 Y-27.8170
G01 X9.4286 Y-30.7156
G01 X9.4050 Y-30.8706
G01 X9.3616 Y-31.0439
G01 X9.3015 Y-31.2120
G01 X9.2432 Y-31.3375
G01 X9.1101 Y-31.5596
G01 X9.0269 Y-31.6701
G01 X8.9069 Y-31.8025
G01 X8.7746 Y-31.9224
G01 X8.6640 Y-32.0056
G01 X8.4420 Y-32.1387
G01 X8.3165 Y-32.1970
G01 X8.1483 Y-32.2572
G01 X7.9751 Y-32.3006
G01 X7.7984 Y-32.3268
G01 X7.6200 Y-32.3355
G01 X7.4017 Y-32.3219
G01 X7.2649 Y-32.3006
G01 X7.1305 Y-32.2679
G01 X6.9235 Y-32.1970
G01 X6.7621 Y-32.1206
G01 X6.5760 Y-32.0056
G01 X6.4654 Y-31.9224
G01 X6.3622 Y-31.8302
G01 X6.2131 Y-31.6701
G01 X6.1067 Y-31.5267
G01 X5.9968 Y-31.3375
G01 X5.9385 Y-31.2120
G01 X5.8910 Y-31.0821
G01 X5.8350 Y-30.8706
G01 X5.8088 Y-30.6939
G01 X5.8010 Y-30.4753
G01 X5.8088 Y-30.3372
G01 X5.8281 Y-30.2001
G01 X5.8676 Y-30.0260
G01 X5.9385 Y-29.8191
G01 X6.0347 Y-29.6226
G01 X6.1067 Y-29.5044
G01 X6.1884 Y-29.3927
G01 X6.3622 Y-29.2009
G01 X6.4654 Y-29.1087
G01 X6.6089 Y-29.0023
G01 X6.7621 Y-28.9105
G01 X6.8867 Y-28.8504
G01 X7.1305 Y-28.7632
G01 X7.2649 Y-28.7305
G01 X7.4200 Y-28.7070
G01 X9.9025 Y-26.2244
G01 X9.9025 Y-24.3594
G01 X7.7150 Y-22.1719
G01 X7.4817 Y-22.1697
G01 X7.3046 Y-22.1475
G01 X7.0917 Y-22.0972
G01 X6.9611 Y-22.0515
G01 X6.7621 Y-21.9606
G01 X6.6089 Y-21.8688
G01 X6.4654 Y-21.7624
G01 X6.3331 Y-21.6425
G01 X6.2131 Y-21.5101
G01 X6.1299 Y-21.3996
G01 X6.0149 Y-21.2135
G01 X5.9385 Y-21.0520
G01 X5.8784 Y-20.8839
G01 X5.8350 Y-20.7106
G01 X5.8110 Y-20.5522
G01 X5.7002 Y-20.4155
G01 X5.6054 Y-20.2631
G01 X5.5458 Y-20.1371
G01 X5.4881 Y-19.9670
G01 X5.4495 Y-19.7727
G01 X5.4377 Y-19.5935
G01 X5.4377 Y-6.9794
G01 X5.3679 Y-6.8860
G00 Z2.0000
G00 X5.5903 Y-6.8824
G01 F60.00
G01 Z-0.0900
G01 F120.00
G01 X5.4944 Y-6.7531
G01 X5.4116 Y-6.6151
G01 X5.3428 Y-6.4696
G01 X5.2886 Y-6.3181
G01 X5.2495 Y-6.1619
G01 X5.2259 Y-6.0027
G01 X5.2180 Y-5.8420
G01 X5.2259 Y-5.6813
G01 X5.2495 Y-5.5221
G01 X5.2886 Y-5.3659
G01 X5.3428 Y-5.2144
G01 X5.4116 Y-5.0689
G01 X5.4944 Y-4.9309
G01 X5.5903 Y-4.8016
G01 X5.6983 Y-4.6823
G01 X5.8176 Y-4.5743
G01 X5.9469 Y-4.4784
G01 X6.0849 Y-4.3956
G01 X6.2304 Y-4.3268
G01 X6.3819 Y-4.2726
G01 X6.5381 Y-4.2335
G01 X6.6973 Y-4.2099
G01 X6.8580 Y-4.2020
G01 X7.0187 Y-4.2099
G01 X7.1779 Y-4.2335
G01 X7.3341 Y-4.2726
G01 X7.4856 Y-4.3268
G01 X7.6311 Y-4.3956
G01 X7.7691 Y-4.4784
G01 X7.8984 Y-4.5743
G01 X8.0177 Y-4.6823
G01 X8.1257 Y-4.8016
G01 X8.2216 Y-4.9309
G01 X8.3044 Y-5.0689
G01 X8.3732 Y-5.2144
G01 X8.4175 Y-5.3361
G01 X8.4719 Y-5.5530
G01 X8.4901 Y-5.6813
G01 X8.4980 Y-5.8420
G01 X8.4901 Y-6.0027
G01 X8.4665 Y-6.1619
G01 X8.4274 Y-6.3181
G01 X8.3845 Y-6.4403
G01 X8.3044 Y-6.6151
G01 X8.2384 Y-6.7266
G01 X8.0983 Y-6.9138
G01 X8.0983 Y-18.7869
G01 X8.2763 Y-18.8531
G01 X8.3931 Y-18.9092
G01 X8.5046 Y-18.9751
G01 X8.6604 Y-19.0878
G01 X8.7797 Y-19.1959
G01 X8.9071 Y-19.3399
G01 X8.9836 Y-19.4444
G01 X9.0509 Y-19.5551
G01 X9.1352 Y-19.7279
G01 X9.1910 Y-19.8852
G01 X12.2215 Y-22.9168
G01 X12.3541 Y-23.0820
G01 X12.4560 Y-23.2677
G01 X12.5181 Y-23.4413
G01 X12.5571 Y-23.6495
G01 X12.5631 Y-23.7711
G01 X12.5623 Y-26.8441
G01 X12.5533 Y-26.9655
G01 X12.5181 Y-27.1425
G01 X12.4687 Y-27.2874
G01 X12.4167 Y-27.3974
G01 X12.3009 Y-27.5748
G01 X12.1998 Y-27.6898
G01 X9.2549 Y-30.6347
G01 X9.2216 Y-30.8661
G01 X9.1894 Y-30.9916
G01 X9.1224 Y-31.1719
G01 X9.0664 Y-31.2886
G01 X8.9836 Y-31.4267
G01 X8.8877 Y-31.5560
G01 X8.7797 Y-31.6752
G01 X8.6604 Y-31.7833
G01 X8.5568 Y-31.8611
G01 X8.3650 Y-31.9760
G01 X8.2476 Y-32.0307
G01 X8.0961 Y-32.0849
G01 X7.9400 Y-32.1240
G01 X7.7807 Y-32.1477
G01 X7.6200 Y-32.1555
G01 X7.4281 Y-32.1438
G01 X7.3000 Y-32.1240
G01 X7.1742 Y-32.0933
G01 X6.9924 Y-32.0307
G01 X6.8469 Y-31.9619
G01 X6.6832 Y-31.8611
G01 X6.5796 Y-31.7833
G01 X6.4831 Y-31.6969
G01 X6.3523 Y-31.5560
G01 X6.2564 Y-31.4267
G01 X6.1595 Y-31.2606
G01 X6.1048 Y-31.1432
G01 X6.0605 Y-31.0214
G01 X6.0115 Y-30.8355
G01 X5.9879 Y-30.6763
G01 X5.9808 Y-30.4841
G01 X5.9879 Y-30.3548
G01 X6.0061 Y-30.2266
G01 X6.0506 Y-30.0395
G01 X6.1176 Y-29.8592
G01 X6.1736 Y-29.7425
G01 X6.2396 Y-29.6310
G01 X6.3523 Y-29.4751
G01 X6.4831 Y-29.3342
G01 X6.5796 Y-29.2478
G01 X6.7089 Y-29.1519
G01 X6.8469 Y-29.0692
G01 X6.9637 Y-29.0131
G01 X7.1439 Y-28.9462
G01 X7.2694 Y-28.9139
G01 X7.5009 Y-28.8806
G01 X10.0825 Y-26.2990
G01 X10.0825 Y-24.2848
G01 X7.7848 Y-21.9872
G01 X7.6200 Y-21.9955
G01 X7.4593 Y-21.9877
G01 X7.3000 Y-21.9640
G01 X7.1141 Y-21.9151
G01 X6.9924 Y-21.8707
G01 X6.8750 Y-21.8160
G01 X6.7354 Y-21.7360
G01 X6.5796 Y-21.6233
G01 X6.4603 Y-21.5152
G01 X6.3523 Y-21.3960
G01 X6.2745 Y-21.2924
G01 X6.1595 Y-21.1006
G01 X6.1048 Y-20.9832
G01 X6.0506 Y-20.8316
G01 X6.0115 Y-20.6755
G01 X5.9851 Y-20.4747
G01 X5.8799 Y-20.3556
G01 X5.7796 Y-20.2055
G01 X5.7121 Y-20.0682
G01 X5.6627 Y-19.9233
G01 X5.6275 Y-19.7463
G01 X5.6177 Y-19.5935
G01 X5.6177 Y-6.9138
G01 X5.5903 Y-6.8824
G00 Z2.0000
G00 X5.7294 Y-6.7682
G01 F60.00
G01 Z-0.0900
G01 F120.00
G01 X5.6441 Y-6.6531
G01 X5.5704 Y-6.5302
G01 X5.5091 Y-6.4007
G01 X5.4609 Y-6.2658
G01 X5.4261 Y-6.1268
G01 X5.4050 Y-5.9851
G01 X5.3980 Y-5.8420
G01 X5.4050 Y-5.6989
G01 X5.4261 Y-5.5572
G01 X5.4609 Y-5.4182
G01 X5.5091 Y-5.2833
G01 X5.5704 Y-5.1538
G01 X5.6441 Y-5.0309
G01 X5.7294 Y-4.9158
G01 X5.8256 Y-4.8096
G01 X5.9318 Y-4.7134
G01 X6.0469 Y-4.6281
G01 X6.1698 Y-4.5544
G01 X6.2993 Y-4.4931
G01 X6.4342 Y-4.4449
G01 X6.5732 Y-4.4101
G01 X6.7149 Y-4.3890
G01 X6.8580 Y-4.3820
G01 X7.0011 Y-4.3890
G01 X7.1428 Y-4.4101
G01 X7.2818 Y-4.4449
G01 X7.4167 Y-4.4931
G01 X7.5462 Y-4.5544
G01 X7.6691 Y-4.6281
G01 X7.7842 Y-4.7134
G01 X7.8904 Y-4.8096
G01 X7.9866 Y-4.9158
G01 X8.0719 Y-5.0309
G01 X8.1456 Y-5.1538
G01 X8.2069 Y-5.2833
G01 X8.2481 Y-5.3967
G01 X8.2938 Y-5.5794
G01 X8.3110 Y-5.6989
G01 X8.3180 Y-5.8420
G01 X8.3110 Y-5.9851
G01 X8.2899 Y-6.1268
G01 X8.2551 Y-6.2658
G01 X8.2069 Y-6.4007
G01 X8.1456 Y-6.5302
G01 X8.0719 Y-6.6531
G01 X7.9866 Y-6.7682
G01 X7.9183 Y-6.8444
G01 X7.9183 Y-18.9266
G01 X8.0438 Y-18.9584
G01 X8.1577 Y-18.9986
G01 X8.3082 Y-19.0679
G01 X8.4311 Y-19.1416
G01 X8.5284 Y-19.2131
G01 X8.6679 Y-19.3395
G01 X8.7486 Y-19.4293
G01 X8.8209 Y-19.5260
G01 X8.9076 Y-19.6673
G01 X8.9689 Y-19.7968
G01 X9.0293 Y-19.9781
G01 X12.1424 Y-23.0984
G01 X12.2468 Y-23.2516
G01 X12.3024 Y-23.3653
G01 X12.3435 Y-23.4851
G01 X12.3780 Y-23.6672
G01 X12.3830 Y-26.8240
G01 X12.3752 Y-26.9391
G01 X12.3435 Y-27.0988
G01 X12.3024 Y-27.2185
G01 X12.2579 Y-27.3126
G01 X12.1563 Y-27.4676
G01 X12.0726 Y-27.5625
G01 X9.0785 Y-30.5565
G01 X9.0730 Y-30.6587
G01 X9.0519 Y-30.8004
G01 X9.0171 Y-30.9394
G01 X8.9689 Y-31.0743
G01 X8.9076 Y-31.2038
G01 X8.8339 Y-31.3267
G01 X8.7486 Y-31.4418
G01 X8.6524 Y-31.5479
G01 X8.5462 Y-31.6441
G01 X8.4496 Y-31.7165
G01 X8.2881 Y-31.8133
G01 X8.1787 Y-31.8644
G01 X8.0438 Y-31.9127
G01 X7.9048 Y-31.9475
G01 X7.7631 Y-31.9685
G01 X7.6200 Y-31.9755
G01 X7.4545 Y-31.9658
G01 X7.3352 Y-31.9475
G01 X7.2179 Y-31.9187
G01 X7.0613 Y-31.8644
G01 X6.9318 Y-31.8032
G01 X6.7904 Y-31.7165
G01 X6.6938 Y-31.6441
G01 X6.6040 Y-31.5635
G01 X6.4914 Y-31.4418
G01 X6.4061 Y-31.3267
G01 X6.3222 Y-31.1836
G01 X6.2711 Y-31.0743
G01 X6.2299 Y-30.9608
G01 X6.1881 Y-30.8004
G01 X6.1670 Y-30.6587
G01 X6.1606 Y-30.4930
G01 X6.1670 Y-30.3724
G01 X6.1842 Y-30.2530
G01 X6.2229 Y-30.0917
G01 X6.2803 Y-29.9362
G01 X6.3324 Y-29.8273
G01 X6.3940 Y-29.7235
G01 X6.4914 Y-29.5893
G01 X6.6040 Y-29.4676
G01 X6.6938 Y-29.3870
G01 X6.8089 Y-29.3016
G01 X6.9318 Y-29.2279
G01 X7.0613 Y-29.1667
G01 X7.1962 Y-29.1184
G01 X7.3352 Y-29.0836
G01 X7.4769 Y-29.0626
G01 X7.5791 Y-29.0570
G01 X10.2625 Y-26.3735
G01 X10.2625 Y-24.2103
G01 X7.8486 Y-21.7964
G01 X7.6426 Y-21.8150
G01 X7.4994 Y-21.8102
G01 X7.3352 Y-21.7875
G01 X7.1962 Y-21.7527
G01 X7.0406 Y-21.6953
G01 X6.9318 Y-21.6432
G01 X6.8279 Y-21.5816
G01 X6.6938 Y-21.4841
G01 X6.5876 Y-21.3879
G01 X6.4914 Y-21.2818
G01 X6.4191 Y-21.1851
G01 X6.3222 Y-21.0236
G01 X6.2711 Y-20.9143
G01 X6.2168 Y-20.7576
G01 X6.1842 Y-20.6181
G01 X6.1615 Y-20.3965
G01 X6.0384 Y-20.2662
G01 X5.9643 Y-20.1635
G01 X5.8876 Y-20.0199
G01 X5.8373 Y-19.8796
G01 X5.8056 Y-19.7199
G01 X5.7977 Y-19.5935
G01 X5.7977 Y-6.8444
G01 X5.7294 Y-6.7682
G00 Z2.0000
G00 X5.9529 Y-6.7471
G01 F60.00
G01 Z-0.0900
G01 F120.00
G01 X5.8685 Y-6.6540
G01 X5.7937 Y-6.5531
G01 X5.7291 Y-6.4454
G01 X5.6754 Y-6.3318
G01 X5.6331 Y-6.2136
G01 X5.6026 Y-6.0917
G01 X5.5842 Y-5.9675
G01 X5.5780 Y-5.8420
G01 X5.5842 Y-5.7165
G01 X5.6026 Y-5.5923
G01 X5.6331 Y-5.4704
G01 X5.6754 Y-5.3522
G01 X5.7291 Y-5.2386
G01 X5.7937 Y-5.1309
G01 X5.8685 Y-5.0300
G01 X5.9529 Y-4.9369
G01 X6.0460 Y-4.8525
G01 X6.1469 Y-4.7777
G01 X6.2546 Y-4.7131
G01 X6.3682 Y-4.6594
G01 X6.4864 Y-4.6171
G01 X6.6083 Y-4.5866
G01 X6.7325 Y-4.5682
G01 X6.8580 Y-4.5620
G01 X6.9835 Y-4.5682
G01 X7.1077 Y-4.5866
G01 X7.2296 Y-4.6171
G01 X7.3478 Y-4.6594
G01 X7.4614 Y-4.7131
G01 X7.5691 Y-4.7777
G01 X7.6700 Y-4.8525
G01 X7.7631 Y-4.9369
G01 X7.8475 Y-5.0300
G01 X7.9223 Y-5.1309
G01 X7.9869 Y-5.2386
G01 X8.0406 Y-5.3522
G01 X8.0829 Y-5.4704
G01 X8.1134 Y-5.5923
G01 X8.1318 Y-5.7165
G01 X8.1380 Y-5.8420
G01 X8.1318 Y-5.9675
G01 X8.1134 Y-6.0917
G01 X8.0829 Y-6.2136
G01 X8.0406 Y-6.3318
G01 X7.9869 Y-6.4454
G01 X7.9223 Y-6.5531
G01 X7.8475 Y-6.6540
G01 X7.7383 Y-6.7700
G01 X7.7383 Y-19.0812
G01 X7.8697 Y-19.1001
G01 X7.9783 Y-19.1270
G01 X8.1224 Y-19.1786
G01 X8.2234 Y-19.2267
G01 X8.3311 Y-19.2913
G01 X8.4320 Y-19.3661
G01 X8.5251 Y-19.4505
G01 X8.6179 Y-19.5544
G01 X8.6843 Y-19.6444
G01 X8.7489 Y-19.7522
G01 X8.8075 Y-19.8785
G01 X8.8668 Y-20.0702
G01 X11.9943 Y-23.2022
G01 X12.0621 Y-23.2936
G01 X12.1361 Y-23.4342
G01 X12.1832 Y-23.5859
G01 X12.1999 Y-23.6985
G01 X12.2030 Y-26.8196
G01 X12.1972 Y-26.9127
G01 X12.1689 Y-27.0550
G01 X12.1361 Y-27.1496
G01 X12.0992 Y-27.2277
G01 X12.0117 Y-27.3604
G01 X11.9453 Y-27.4352
G01 X8.8987 Y-30.4818
G01 X8.8938 Y-30.6410
G01 X8.8754 Y-30.7653
G01 X8.8449 Y-30.8871
G01 X8.8026 Y-31.0054
G01 X8.7489 Y-31.1189
G01 X8.6843 Y-31.2267
G01 X8.6095 Y-31.3276
G01 X8.5251 Y-31.4206
G01 X8.4320 Y-31.5050
G01 X8.3311 Y-31.5798
G01 X8.2234 Y-31.6444
G01 X8.1224 Y-31.6925
G01 X7.9783 Y-31.7441
G01 X7.8697 Y-31.7710
G01 X7.7318 Y-31.7904
G01 X7.6200 Y-31.7955
G01 X7.5082 Y-31.7904
G01 X7.3838 Y-31.7733
G01 X7.2484 Y-31.7404
G01 X7.1302 Y-31.6981
G01 X7.0166 Y-31.6444
G01 X6.8976 Y-31.5719
G01 X6.8080 Y-31.5050
G01 X6.7249 Y-31.4301
G01 X6.6305 Y-31.3276
G01 X6.5557 Y-31.2267
G01 X6.4850 Y-31.1067
G01 X6.4374 Y-31.0054
G01 X6.3994 Y-30.9002
G01 X6.3646 Y-30.7653
G01 X6.3452 Y-30.6273
G01 X6.3400 Y-30.5156
G01 X6.3452 Y-30.4038
G01 X6.3646 Y-30.2658
G01 X6.3994 Y-30.1309
G01 X6.4374 Y-30.0257
G01 X6.4911 Y-29.9122
G01 X6.5557 Y-29.8044
G01 X6.6221 Y-29.7144
G01 X6.7249 Y-29.6010
G01 X6.8080 Y-29.5261
G01 X6.8976 Y-29.4592
G01 X7.0289 Y-29.3805
G01 X7.1302 Y-29.3330
G01 X7.2484 Y-29.2907
G01 X7.3703 Y-29.2601
G01 X7.4809 Y-29.2434
G01 X7.6537 Y-29.2369
G01 X10.4425 Y-26.4481
G01 X10.4425 Y-24.1357
G01 X7.9084 Y-21.6016
G01 X7.7455 Y-21.6294
G01 X7.6063 Y-21.6352
G01 X7.4945 Y-21.6294
G01 X7.3838 Y-21.6133
G01 X7.2484 Y-21.5804
G01 X7.1176 Y-21.5325
G01 X7.0166 Y-21.4844
G01 X6.9205 Y-21.4272
G01 X6.8080 Y-21.3450
G01 X6.7149 Y-21.2606
G01 X6.6305 Y-21.1676
G01 X6.5557 Y-21.0667
G01 X6.4911 Y-20.9589
G01 X6.4374 Y-20.8454
G01 X6.3951 Y-20.7271
G01 X6.3646 Y-20.6053
G01 X6.3462 Y-20.4810
G01 X6.3413 Y-20.3218
G01 X6.1865 Y-20.1624
G01 X6.1261 Y-20.0826
G01 X6.0503 Y-19.9430
G01 X6.0119 Y-19.8358
G01 X5.9836 Y-19.6935
G01 X5.9777 Y-19.5935
G01 X5.9777 Y-6.7700
G01 X5.9529 Y-6.7471
G00 Z2.0000
G00 X6.0837 Y-6.6232
G01 F60.00
G01 Z-0.0900
G01 F120.00
G01 X6.0077 Y-6.5398
G01 X5.9434 Y-6.4531
G01 X5.8879 Y-6.3605
G01 X5.8417 Y-6.2630
G01 X5.8054 Y-6.1613
G01 X5.7791 Y-6.0566
G01 X5.7633 Y-5.9498
G01 X5.7580 Y-5.8420
G01 X5.7633 Y-5.7342
G01 X5.7791 Y-5.6274
G01 X5.8054 Y-5.5227
G01 X5.8417 Y-5.4210
G01 X5.8879 Y-5.3235
G01 X5.9434 Y-5.2309
G01 X6.0077 Y-5.1442
G01 X6.0802 Y-5.0642
G01 X6.1602 Y-4.9917
G01 X6.2469 Y-4.9274
G01 X6.3395 Y-4.8719
G01 X6.4370 Y-4.8257
G01 X6.5387 Y-4.7894
G01 X6.6434 Y-4.7631
G01 X6.7502 Y-4.7473
G01 X6.8580 Y-4.7420
G01 X6.9658 Y-4.7473
G01 X7.0726 Y-4.7631
G01 X7.1773 Y-4.7894
G01 X7.2790 Y-4.8257
G01 X7.3765 Y-4.8719
G01 X7.4691 Y-4.9274
G01 X7.5558 Y-4.9917
G01 X7.6358 Y-5.0642
G01 X7.7083 Y-5.1442
G01 X7.7726 Y-5.2309
G01 X7.8281 Y-5.3235
G01 X7.8743 Y-5.4210
G01 X7.9106 Y-5.5227
G01 X7.9369 Y-5.6274
G01 X7.9527 Y-5.7342
G01 X7.9580 Y-5.8420
G01 X7.9527 Y-5.9498
G01 X7.9369 Y-6.0566
G01 X7.9106 Y-6.1613
G01 X7.8723 Y-6.2674
G01 X7.8257 Y-6.3648
G01 X7.7113 Y-6.5360
G01 X7.6358 Y-6.6198
G01 X7.5583 Y-6.6902
G01 X7.5583 Y-19.2585
G01 X7.7229 Y-19.2605
G01 X7.8298 Y-19.2758
G01 X7.9393 Y-19.3029
G01 X8.0364 Y-19.3375
G01 X8.1385 Y-19.3854
G01 X8.2311 Y-19.4409
G01 X8.3178 Y-19.5052
G01 X8.3978 Y-19.5777
G01 X8.4733 Y-19.6616
G01 X8.5346 Y-19.7444
G01 X8.5901 Y-19.8370
G01 X8.6363 Y-19.9346
G01 X8.6711 Y-20.0316
G01 X8.7018 Y-20.1597
G01 X11.8197 Y-23.2777
G01 X11.9051 Y-23.3820
G01 X11.9678 Y-23.4986
G01 X11.9943 Y-23.5725
G01 X12.0201 Y-23.7073
G01 X12.0231 Y-26.8152
G01 X12.0191 Y-26.8863
G01 X11.9943 Y-27.0113
G01 X11.9404 Y-27.1429
G01 X11.8672 Y-27.2531
G01 X11.8180 Y-27.3079
G01 X8.7149 Y-30.4110
G01 X8.7200 Y-30.5155
G01 X8.7147 Y-30.6234
G01 X8.6989 Y-30.7301
G01 X8.6711 Y-30.8395
G01 X8.6363 Y-30.9365
G01 X8.5877 Y-31.0384
G01 X8.4733 Y-31.2095
G01 X8.4012 Y-31.2898
G01 X8.3178 Y-31.3659
G01 X8.2311 Y-31.4302
G01 X8.1385 Y-31.4857
G01 X8.0454 Y-31.5298
G01 X7.9346 Y-31.5695
G01 X7.8346 Y-31.5944
G01 X7.7229 Y-31.6106
G01 X7.5171 Y-31.6106
G01 X7.4102 Y-31.5953
G01 X7.3007 Y-31.5682
G01 X7.1990 Y-31.5318
G01 X7.0972 Y-31.4832
G01 X6.9260 Y-31.3689
G01 X6.8422 Y-31.2934
G01 X6.7667 Y-31.2095
G01 X6.6523 Y-31.0384
G01 X6.6057 Y-30.9410
G01 X6.5674 Y-30.8349
